X:1
T:Washed White as Snow
T:Washed White as Snow
T:John Robson Sweney
T:Frances Jane (Fanny) Crosby, 1882
T:Public Domain Courtesy of the Cyber Hymnal™
C:John Robson Sweney
Z:Public Domain
Z:Courtesy of the Cyber Hymnal™
%%score ( 1 2 ) ( 3 4 )
L:1/8
Q:1/4=92
M:6/8
K:G
V:1 treble 
V:2 treble 
V:3 bass 
V:4 bass 
V:1
 D/D/ | D2 [DB] ([DB][CA])[DB] | [B,G]2 [B,G] [B,G]2 D/D/ | D2 [Dc] (cB)[Dc] | %4
w: 1.~Tho’ my|sins were once * like|crim- son red, To the|heal- ing stream * my|
w: 2.~At the|door of faith * I|en- tered in, And to|Him con- fessed * my|
w: 3.~Tho’ my|heart was all * I|had to give, Yet He|smiled and bade * me|
w: 4.~I will|sing His power * from|death to save, I will|sing His tri- * umph|
 [FA]2 [FA] [FA]2 D/D/ | D2 [GB] ([GB][Fc])[=Fd] | [Ed]2 [Ec] [Ec]2 [EA] | [DG]2 [GB] [GB]2 [FA] | %8
w: feet were led, In the|pre- cious blood * my|Sav- ior shed He|washed me white as|
w: guilt and sin, With His|own dear hand * He|washed me clean, He|washed me white as|
w: look and live, What a|calm, sweet peace * did|I re- ceive— He|washed me white as|
w: o’er the grave, I will|sing, while cross- * ing|Jor- dan’s wave, He|washed me white as|
 G3- G2 ||"^Refrain" [GB]/[Ac]/ | [Bd]2 [Bd] ([Bd][Ac])[GB] | [FA]2 [GB] [Fc]2 [FA]/[GB]/ | %12
w: snow. *||||
w: snow. *||||
w: snow. *||||
w: snow. *||||
 [Ac]2 [ce] ([ce][Bd])[Ac] | [GB]2 [Fc] [GB]3 | [GB]3 [DG]3 | ([EA]2 [^GB]) [Ac]2 [=Ge] | %16
w: ||||
w: ||||
w: ||||
w: ||||
 [Gd]2 [GB] [GB]2 [FA] | [DG]3- [DG]2 |] %18
w: ||
w: ||
w: ||
w: ||
V:2
 D/D/ | D2 x4 | x5 D/D/ | D2 D2 x2 | x5 D/D/ | D2 x4 | x6 | x6 | G3- G2 || x | x6 | x6 | x6 | x6 | %14
 x6 | x6 | x6 | x5 |] %18
V:3
 [G,B,]/[G,B,]/ | [G,B,]2 [G,,G,] [G,,G,]2 [G,,G,] | [G,,D,]2 [G,,D,] [G,,D,]2 [G,B,]/[G,B,]/ | %3
w: ~ ~|~ ~ ~ ~|~ ~ ~ ~ ~|
 [F,A,]2 [F,A,] (A,^G,)[D,A,] | [D,D]2 [D,D] [D,D]2 [F,C]/[F,C]/ | [G,B,]2 [G,D] D2 [B,,G,] | %6
w: ~ ~ ~ * ~|~ ~ ~ ~ ~|~ ~ ~ ~|
 [C,G,]2 [C,G,] [C,G,]2 [C,C] | [D,B,]2 [D,D] [D,D]2 [D,C] | [G,B,]3- [G,B,]2 || [G,D]/[G,D]/ | %10
w: ~ ~ ~ ~|~ ~ ~ ~|~ *|Oh, my|
 [G,D]2 [G,D] [G,D]2 [G,D] | [D,D]2 [D,D] [D,A,]2 [D,D]/[D,D]/ | [D,D]2 [D,D] ([D,D]E,)[F,D] | %13
w: joy- ful song shall|hence- forth be, ’Tis the|blood of Je- * sus|
 [G,D]2 [A,D] [B,D]3 | [G,D]3 [G,B,]3 | ([C,C]2 [B,,E]) [A,,E]2 [C,C] | %16
w: cleans- eth me,|Cleans- eth,|cleans- * eth, Oh,|
 [D,B,]2 [D,D] [D,D]2 [D,C] | [G,,G,B,]3- [G,,G,B,]2 |] %18
w: yes, it cleans- eth|me. *|
V:4
 x | x6 | x6 | x3 D,2 x | x6 | x3 (G,,A,,) x | x6 | x6 | x5 || x | x6 | x6 | x6 | x6 | x6 | x6 | %16
 x6 | x5 |] %18

